src/containers/site/SiteWalletScreen/asset/wallet_feature_3.svg

<svg width="88" height="88" viewBox="0 0 88 88" fill="none" xmlns="http://www.w3.org/2000/svg">
<path d="M43.4375 79.8736C43.1851 79.8736 42.9537 79.8315 42.7223 79.7264L38.9145 77.9592C38.073 77.5595 37.7153 76.5707 38.094 75.7292C38.4937 74.8877 39.4825 74.5301 40.324 74.9088L43.4375 76.3604L46.5511 74.9088C47.3926 74.5091 48.4024 74.8877 48.7811 75.7292C49.1808 76.5707 48.8021 77.5805 47.9606 77.9592L44.1528 79.7264C43.9214 79.8315 43.69 79.8736 43.4375 79.8736Z" fill="url(#paint0_linear)"/>
<path d="M38.9138 77.9384C38.0723 77.5387 37.6936 76.5499 38.0933 75.7084C38.4931 74.8669 39.4818 74.5093 40.3233 74.888C41.1648 75.2877 41.5225 76.2764 41.1438 77.1179C40.8493 77.728 40.2602 78.0857 39.6291 78.0857C39.3766 78.1067 39.1452 78.0436 38.9138 77.9384Z" fill="url(#paint1_linear)"/>
<path d="M30.6046 73.8992C30.3521 73.8992 30.1207 73.8571 29.8893 73.7309L20.8642 69.5234C20.2752 69.2499 19.8965 68.6398 19.8965 68.0087C19.8965 67.7562 19.9386 67.5248 20.0648 67.2934C20.3383 66.7044 20.9484 66.3257 21.6005 66.3257C21.853 66.3257 22.0844 66.3678 22.3158 66.494L31.3409 70.7015C32.1824 71.1012 32.54 72.0899 32.1613 72.9314C31.8458 73.5205 31.2567 73.8992 30.6046 73.8992Z" fill="url(#paint2_linear)"/>
<path d="M12.5543 65.5052C12.3228 65.5052 12.0704 65.4632 11.839 65.3369L8.0312 63.5698C7.44215 63.2963 7.06348 62.7072 7.06348 62.034V57.8266C7.06348 56.9009 7.82083 56.1436 8.74647 56.1436C9.67212 56.1436 10.4295 56.9009 10.4295 57.8266V60.9611L13.2695 62.2865C14.111 62.6862 14.4687 63.675 14.09 64.5165C13.7955 65.1266 13.1854 65.5052 12.5543 65.5052Z" fill="url(#paint3_linear)"/>
<path d="M7.06348 57.8266C7.06348 56.9009 7.82083 56.1436 8.74647 56.1436C9.67212 56.1436 10.4295 56.9009 10.4295 57.8266C10.4295 58.7522 9.67212 59.5095 8.74647 59.5095C7.79979 59.5095 7.06348 58.7522 7.06348 57.8266Z" fill="url(#paint4_linear)"/>
<path d="M8.74647 49.2853C7.82083 49.2853 7.06348 48.5279 7.06348 47.6023V37.3781C7.06348 36.4524 7.82083 35.6951 8.74647 35.6951C9.67212 35.6951 10.4295 36.4524 10.4295 37.3781V47.6023C10.4295 48.5279 9.67212 49.2853 8.74647 49.2853Z" fill="url(#paint5_linear)"/>
<path d="M8.74647 28.8368C7.82083 28.8368 7.06348 28.0795 7.06348 27.1538V22.9463C7.06348 22.2521 7.48423 21.642 8.11535 21.3896L12.0073 19.8117C12.8698 19.4541 13.8586 19.8749 14.1952 20.7374C14.5528 21.5999 14.1321 22.5887 13.2695 22.9253L10.4295 24.0823V27.1538C10.4295 28.0795 9.67212 28.8368 8.74647 28.8368Z" fill="url(#paint6_linear)"/>
<path d="M11.0818 21.9786C10.7241 21.1161 11.1449 20.1273 12.0074 19.7907C12.8699 19.4331 13.8587 19.8539 14.1953 20.7164C14.5529 21.5789 14.1322 22.5677 13.2697 22.9043C13.0593 22.9884 12.8489 23.0305 12.6385 23.0305C11.9653 23.0305 11.3342 22.6308 11.0818 21.9786Z" fill="url(#paint7_linear)"/>
<path fill-rule="evenodd" clip-rule="evenodd" d="M47.2034 12.1541C47.4137 12.2383 47.6241 12.2804 47.8345 12.2804C48.5287 12.2804 49.1388 11.8596 49.3913 11.2495C49.7279 10.387 49.3282 9.41926 48.4656 9.06163L44.0688 7.27344C43.6691 7.10514 43.2063 7.10514 42.8065 7.27344L38.4097 9.06163C37.5472 9.39823 37.1264 10.387 37.4841 11.2495C37.7365 11.8806 38.3466 12.3014 39.0408 12.3014C39.2302 12.3014 39.3985 12.2593 39.5878 12.1962C39.6088 12.1752 39.6088 12.1752 39.6299 12.1752C39.6404 12.1752 39.6457 12.1699 39.6509 12.1647C39.6562 12.1594 39.6614 12.1541 39.672 12.1541L43.4377 10.6184L47.2034 12.1541ZM65.4429 19.4331C65.2325 19.4331 65.0011 19.391 64.8117 19.3069L56.0181 15.7095C55.3869 15.457 54.9662 14.8469 54.9662 14.1527C54.9662 13.9423 55.0083 13.7109 55.0924 13.5216C55.3449 12.8904 55.955 12.4697 56.6492 12.4697C56.8596 12.4697 57.0699 12.5118 57.2803 12.5959L66.074 16.1723C66.7051 16.4247 67.1258 17.0348 67.1258 17.7291C67.1258 17.9394 67.0838 18.1498 66.9996 18.3602C66.7472 19.0334 66.1371 19.4331 65.4429 19.4331ZM19.8757 18.4023C20.1282 19.0334 20.7382 19.4541 21.4325 19.4541C21.6639 19.4541 21.8743 19.4121 22.0636 19.3489L30.8573 15.7515C31.4884 15.4991 31.9091 14.889 31.9091 14.1948C31.9091 13.9844 31.8671 13.774 31.7829 13.5636C31.5305 12.9325 30.9204 12.5118 30.2261 12.5118C30.0158 12.5118 29.8054 12.5538 29.595 12.638L20.8014 16.2144C19.9388 16.551 19.5181 17.5397 19.8757 18.4023ZM73.6054 22.9043C73.7947 22.9884 74.0261 23.0305 74.2365 23.0305C74.9307 23.0305 75.5408 22.6098 75.7933 21.9786C76.1299 21.1161 75.7302 20.1484 74.8676 19.7907C74.6573 19.7066 74.4469 19.6645 74.2365 19.6645C73.5423 19.6645 72.9322 20.0853 72.6797 20.7164C72.5956 20.9057 72.5535 21.1371 72.5535 21.3475C72.5535 22.0417 72.9743 22.6518 73.6054 22.9043Z" fill="url(#paint8_linear)"/>
<path d="M78.1281 28.8368C77.2025 28.8368 76.4451 28.0795 76.4451 27.1538V24.0823L73.6051 22.9253C72.7425 22.5676 72.3218 21.5999 72.6794 20.7374C73.0371 19.8749 74.0048 19.4541 74.8673 19.8117L78.7592 21.3896C79.3904 21.642 79.8111 22.2731 79.8111 22.9463V27.1538C79.8111 28.0795 79.0748 28.8368 78.1281 28.8368Z" fill="url(#paint9_linear)"/>
<path d="M76.4453 27.1539C76.4453 26.2283 77.2027 25.4709 78.1283 25.4709C79.054 25.4709 79.8113 26.2283 79.8113 27.1539C79.8113 28.0796 79.054 28.8369 78.1283 28.8369C77.2027 28.8369 76.4453 28.0796 76.4453 27.1539Z" fill="url(#paint10_linear)"/>
<path fill-rule="evenodd" clip-rule="evenodd" d="M76.4453 47.6023C76.4453 48.5279 77.2027 49.2853 78.1283 49.2853C79.075 49.2853 79.8113 48.5279 79.8113 47.6023V37.3781C79.8113 36.4524 79.054 35.6951 78.1283 35.6951C77.2027 35.6951 76.4453 36.4524 76.4453 37.3781V47.6023ZM76.4453 57.8265C76.4453 58.7521 77.2027 59.5095 78.1283 59.5095C79.075 59.5095 79.8113 58.7521 79.8113 57.8265C79.8113 56.9008 79.054 56.1435 78.1283 56.1435C77.2027 56.1435 76.4453 56.9008 76.4453 57.8265Z" fill="url(#paint11_linear)"/>
<path d="M74.3205 65.5052C73.6894 65.5052 73.0793 65.1475 72.7848 64.5375C72.385 63.696 72.7637 62.6862 73.6052 62.3075L76.4453 60.9821V57.8475C76.4453 56.9219 77.2026 56.1646 78.1283 56.1646C79.0539 56.1646 79.8113 56.9219 79.8113 57.8475V62.055C79.8113 62.7072 79.4326 63.2963 78.8435 63.5908L75.0358 65.3579C74.8043 65.4421 74.5729 65.5052 74.3205 65.5052Z" fill="url(#paint12_linear)"/>
<path d="M72.8053 64.5164C72.4055 63.6749 72.7842 62.6651 73.6257 62.2865C74.4672 61.8867 75.477 62.2654 75.8557 63.1069C76.2554 63.9484 75.8767 64.9582 75.0352 65.3369C74.8038 65.4421 74.5724 65.5052 74.32 65.5052C73.6888 65.5052 73.0787 65.1265 72.8053 64.5164Z" fill="url(#paint13_linear)"/>
<path d="M56.2704 73.8992C55.6183 73.8992 55.0082 73.5205 54.7347 72.9314C54.6295 72.7 54.5664 72.4686 54.5664 72.2162C54.5664 71.564 54.9451 70.975 55.5341 70.7015L64.5592 66.494C64.7906 66.3888 65.022 66.3257 65.2745 66.3257C65.9266 66.3257 66.5367 66.7044 66.8102 67.2934C67.2099 68.1349 66.8312 69.1447 65.9897 69.5234L56.9647 73.7309C56.7543 73.8571 56.5229 73.8992 56.2704 73.8992Z" fill="url(#paint14_linear)"/>
<path d="M43 32C41.9 32 41 31.2448 41 30.3217V12.6783C41 11.7552 41.9 11 43 11C44.1 11 45 11.7552 45 12.6783V30.3217C45 31.2448 44.1 32 43 32Z" fill="url(#paint15_linear)"/>
<path d="M43 78C41.9 78 41 77.2448 41 76.3217V58.6783C41 57.7552 41.9 57 43 57C44.1 57 45 57.7552 45 58.6783V76.3217C45 77.2448 44.1 78 43 78Z" fill="url(#paint16_linear)"/>
<path d="M81.2927 66C81.0169 66 80.7198 65.9364 80.4652 65.788L4.85845 23.169C4.05209 22.7025 3.75501 21.6847 4.22185 20.8578C4.68869 20.0521 5.72847 19.7552 6.53483 20.2217L82.1415 62.8195C82.9479 63.286 83.245 64.3037 82.7781 65.1307C82.4598 65.6819 81.8869 66 81.2927 66Z" fill="url(#paint17_linear)"/>
<path d="M6.70474 65C6.11121 65 5.53887 64.6811 5.22091 64.1282C4.75456 63.299 5.05133 62.2784 5.87803 61.8106L81.4686 19.2216C82.2953 18.7538 83.3127 19.0515 83.7791 19.8807C84.2454 20.71 83.9487 21.7306 83.122 22.1984L7.53144 64.7874C7.27707 64.9362 6.98031 65 6.70474 65Z" fill="url(#paint18_linear)"/>
<path d="M43.5 63C54.2696 63 63 54.2696 63 43.5C63 32.7304 54.2696 24 43.5 24C32.7304 24 24 32.7304 24 43.5C24 54.2696 32.7304 63 43.5 63Z" fill="url(#paint19_linear)"/>
<path d="M8.5 30C12.6421 30 16 26.6421 16 22.5C16 18.3579 12.6421 15 8.5 15C4.35786 15 1 18.3579 1 22.5C1 26.6421 4.35786 30 8.5 30Z" fill="url(#paint20_linear)"/>
<path d="M78.5 30C82.6421 30 86 26.6421 86 22.5C86 18.3579 82.6421 15 78.5 15C74.3579 15 71 18.3579 71 22.5C71 26.6421 74.3579 30 78.5 30Z" fill="url(#paint21_linear)"/>
<path d="M43.5 16C47.6421 16 51 12.6421 51 8.5C51 4.35786 47.6421 1 43.5 1C39.3579 1 36 4.35786 36 8.5C36 12.6421 39.3579 16 43.5 16Z" fill="url(#paint22_linear)"/>
<path d="M43.5 86C47.6421 86 51 82.6421 51 78.5C51 74.3579 47.6421 71 43.5 71C39.3579 71 36 74.3579 36 78.5C36 82.6421 39.3579 86 43.5 86Z" fill="url(#paint23_linear)"/>
<path d="M8.5 70C12.6421 70 16 66.6421 16 62.5C16 58.3579 12.6421 55 8.5 55C4.35786 55 1 58.3579 1 62.5C1 66.6421 4.35786 70 8.5 70Z" fill="url(#paint24_linear)"/>
<path d="M78.5 70C82.6421 70 86 66.6421 86 62.5C86 58.3579 82.6421 55 78.5 55C74.3579 55 71 58.3579 71 62.5C71 66.6421 74.3579 70 78.5 70Z" fill="url(#paint25_linear)"/>
<defs>
<linearGradient id="paint0_linear" x1="7.05447" y1="94.2596" x2="79.8244" y2="94.2596" gradientUnits="userSpaceOnUse">
<stop stop-color="#5C8BFC"/>
<stop offset="1" stop-color="#84B0FF"/>
</linearGradient>
<linearGradient id="paint1_linear" x1="31.8546" y1="86.433" x2="51.9367" y2="86.433" gradientUnits="userSpaceOnUse">
<stop stop-color="#5C8BFC"/>
<stop offset="1" stop-color="#84B0FF"/>
</linearGradient>
<linearGradient id="paint2_linear" x1="17.6865" y1="82.9561" x2="59.7899" y2="82.9561" gradientUnits="userSpaceOnUse">
<stop stop-color="#5C8BFC"/>
<stop offset="1" stop-color="#84B0FF"/>
</linearGradient>
<linearGradient id="paint3_linear" x1="7.05685" y1="108.28" x2="79.8253" y2="108.28" gradientUnits="userSpaceOnUse">
<stop stop-color="#5C8BFC"/>
<stop offset="1" stop-color="#84B0FF"/>
</linearGradient>
<linearGradient id="paint4_linear" x1="7.05632" y1="94.2108" x2="79.8209" y2="94.2108" gradientUnits="userSpaceOnUse">
<stop stop-color="#5C8BFC"/>
<stop offset="1" stop-color="#84B0FF"/>
</linearGradient>
<linearGradient id="paint5_linear" x1="7.05632" y1="189.379" x2="79.8209" y2="189.379" gradientUnits="userSpaceOnUse">
<stop stop-color="#5C8BFC"/>
<stop offset="1" stop-color="#84B0FF"/>
</linearGradient>
<linearGradient id="paint6_linear" x1="7.05685" y1="70.1196" x2="79.8255" y2="70.1196" gradientUnits="userSpaceOnUse">
<stop stop-color="#5C8BFC"/>
<stop offset="1" stop-color="#84B0FF"/>
</linearGradient>
<linearGradient id="paint7_linear" x1="9.85675" y1="31.5763" x2="30.321" y2="31.5763" gradientUnits="userSpaceOnUse">
<stop stop-color="#5C8BFC"/>
<stop offset="1" stop-color="#84B0FF"/>
</linearGradient>
<linearGradient id="paint8_linear" x1="7.05684" y1="25.3604" x2="79.8213" y2="25.3604" gradientUnits="userSpaceOnUse">
<stop stop-color="#5C8BFC"/>
<stop offset="1" stop-color="#84B0FF"/>
</linearGradient>
<linearGradient id="paint9_linear" x1="7.05351" y1="70.1189" x2="79.8214" y2="70.1189" gradientUnits="userSpaceOnUse">
<stop stop-color="#5C8BFC"/>
<stop offset="1" stop-color="#84B0FF"/>
</linearGradient>
<linearGradient id="paint10_linear" x1="7.05644" y1="63.5257" x2="79.821" y2="63.5257" gradientUnits="userSpaceOnUse">
<stop stop-color="#5C8BFC"/>
<stop offset="1" stop-color="#84B0FF"/>
</linearGradient>
<linearGradient id="paint11_linear" x1="7.05644" y1="305.005" x2="79.821" y2="305.005" gradientUnits="userSpaceOnUse">
<stop stop-color="#5C8BFC"/>
<stop offset="1" stop-color="#84B0FF"/>
</linearGradient>
<linearGradient id="paint12_linear" x1="7.05367" y1="108.113" x2="79.8215" y2="108.113" gradientUnits="userSpaceOnUse">
<stop stop-color="#5C8BFC"/>
<stop offset="1" stop-color="#84B0FF"/>
</linearGradient>
<linearGradient id="paint13_linear" x1="56.9733" y1="73.882" x2="77.0605" y2="73.882" gradientUnits="userSpaceOnUse">
<stop stop-color="#5C8BFC"/>
<stop offset="1" stop-color="#84B0FF"/>
</linearGradient>
<linearGradient id="paint14_linear" x1="32.3079" y1="82.9685" x2="74.4115" y2="82.9685" gradientUnits="userSpaceOnUse">
<stop stop-color="#5C8BFC"/>
<stop offset="1" stop-color="#84B0FF"/>
</linearGradient>
<linearGradient id="paint15_linear" x1="41.0021" y1="32.0034" x2="45.0021" y2="32.0034" gradientUnits="userSpaceOnUse">
<stop stop-color="#5C8BFC"/>
<stop offset="1" stop-color="#84B0FF"/>
</linearGradient>
<linearGradient id="paint16_linear" x1="41.0021" y1="78.0004" x2="45.0021" y2="78.0004" gradientUnits="userSpaceOnUse">
<stop stop-color="#5C8BFC"/>
<stop offset="1" stop-color="#84B0FF"/>
</linearGradient>
<linearGradient id="paint17_linear" x1="45.2586" y1="44.9682" x2="45.8631" y2="41.8096" gradientUnits="userSpaceOnUse">
<stop stop-color="#5C8BFC"/>
<stop offset="1" stop-color="#84B0FF"/>
</linearGradient>
<linearGradient id="paint18_linear" x1="41.1421" y1="41.0313" x2="41.7436" y2="44.1985" gradientUnits="userSpaceOnUse">
<stop stop-color="#5C8BFC"/>
<stop offset="1" stop-color="#84B0FF"/>
</linearGradient>
<linearGradient id="paint19_linear" x1="24.0115" y1="62.9845" x2="62.9922" y2="62.9845" gradientUnits="userSpaceOnUse">
<stop stop-color="#FFB300"/>
<stop offset="1" stop-color="#FF8E37"/>
</linearGradient>
<linearGradient id="paint20_linear" x1="15.9841" y1="29.9803" x2="15.9841" y2="14.9987" gradientUnits="userSpaceOnUse">
<stop stop-color="#FFB300"/>
<stop offset="1" stop-color="#FF8E37"/>
</linearGradient>
<linearGradient id="paint21_linear" x1="86.0013" y1="29.9803" x2="86.0013" y2="14.9987" gradientUnits="userSpaceOnUse">
<stop stop-color="#FFB300"/>
<stop offset="1" stop-color="#FF8E37"/>
</linearGradient>
<linearGradient id="paint22_linear" x1="36.0111" y1="15.9975" x2="50.9927" y2="15.9975" gradientUnits="userSpaceOnUse">
<stop stop-color="#FFB300"/>
<stop offset="1" stop-color="#FF8E37"/>
</linearGradient>
<linearGradient id="paint23_linear" x1="36.0111" y1="85.9934" x2="50.9927" y2="85.9934" gradientUnits="userSpaceOnUse">
<stop stop-color="#FFB300"/>
<stop offset="1" stop-color="#FF8E37"/>
</linearGradient>
<linearGradient id="paint24_linear" x1="15.9841" y1="69.9934" x2="15.9841" y2="55.0118" gradientUnits="userSpaceOnUse">
<stop stop-color="#FFB300"/>
<stop offset="1" stop-color="#FF8E37"/>
</linearGradient>
<linearGradient id="paint25_linear" x1="86.0013" y1="69.9934" x2="86.0013" y2="55.0118" gradientUnits="userSpaceOnUse">
<stop stop-color="#FFB300"/>
<stop offset="1" stop-color="#FF8E37"/>
</linearGradient>
</defs>
</svg>

<svg width="88" height="88" fill="none" xmlns="http://www.w3.org/2000/svg"><path d="M43.438 79.874c-.253 0-.484-.042-.716-.148l-3.808-1.767a1.694 1.694 0 01-.82-2.23c.4-.841 1.389-1.199 2.23-.82l3.114 1.451 3.113-1.451a1.67 1.67 0 012.23.82 1.67 1.67 0 01-.82 2.23l-3.808 1.767a1.679 1.679 0 01-.715.148z" fill="url(#paint0_linear)"/><path d="M38.914 77.938c-.842-.4-1.22-1.388-.82-2.23.4-.841 1.388-1.199 2.23-.82.84.4 1.199 1.388.82 2.23-.295.61-.884.968-1.515.968-.252.02-.484-.042-.715-.148z" fill="url(#paint1_linear)"/><path d="M30.605 73.9c-.253 0-.484-.043-.716-.17l-9.025-4.207a1.692 1.692 0 01-.968-1.514c0-.253.043-.484.169-.716a1.7 1.7 0 011.535-.967c.253 0 .484.042.716.168l9.025 4.207c.841.4 1.199 1.389.82 2.23-.315.59-.904.968-1.556.968z" fill="url(#paint2_linear)"/><path d="M12.554 65.505c-.231 0-.484-.042-.715-.168L8.031 63.57a1.677 1.677 0 01-.968-1.536v-4.207c0-.926.758-1.683 1.683-1.683.926 0 1.684.757 1.684 1.683v3.134l2.84 1.325c.841.4 1.199 1.389.82 2.23a1.73 1.73 0 01-1.536.99z" fill="url(#paint3_linear)"/><path d="M7.063 57.827c0-.926.758-1.683 1.683-1.683.926 0 1.684.757 1.684 1.683 0 .925-.758 1.683-1.684 1.683a1.674 1.674 0 01-1.683-1.683z" fill="url(#paint4_linear)"/><path d="M8.746 49.285a1.688 1.688 0 01-1.683-1.683V37.378c0-.926.758-1.683 1.683-1.683.926 0 1.684.757 1.684 1.683v10.224c0 .926-.758 1.683-1.684 1.683z" fill="url(#paint5_linear)"/><path d="M8.746 28.837a1.688 1.688 0 01-1.683-1.683v-4.208c0-.694.421-1.304 1.052-1.556l3.892-1.578a1.665 1.665 0 012.188.925 1.665 1.665 0 01-.925 2.188l-2.84 1.157v3.072c0 .925-.758 1.683-1.684 1.683z" fill="url(#paint6_linear)"/><path d="M11.082 21.979a1.665 1.665 0 01.925-2.188 1.665 1.665 0 012.188.925 1.665 1.665 0 01-.925 2.188 1.69 1.69 0 01-.631.127c-.674 0-1.305-.4-1.557-1.052z" fill="url(#paint7_linear)"/><path fill-rule="evenodd" clip-rule="evenodd" d="M47.203 12.154a1.685 1.685 0 002.188-.905 1.69 1.69 0 00-.925-2.187l-4.397-1.789a1.641 1.641 0 00-1.263 0L38.41 9.062a1.665 1.665 0 00-.926 2.188 1.672 1.672 0 001.557 1.051c.19 0 .358-.042.547-.105.02-.02.02-.02.042-.02.01 0 .016-.006.02-.011.006-.006.011-.01.022-.01l3.766-1.537 3.765 1.536zm18.24 7.28c-.21 0-.442-.043-.631-.127l-8.794-3.597a1.672 1.672 0 01-.926-2.188 1.672 1.672 0 012.188-.926l8.794 3.576A1.672 1.672 0 0167 18.36a1.63 1.63 0 01-1.557 1.073zm-45.567-1.032a1.672 1.672 0 001.556 1.052c.232 0 .442-.042.632-.105l8.793-3.598a1.672 1.672 0 00.926-2.187 1.672 1.672 0 00-2.188-.926l-8.794 3.576a1.665 1.665 0 00-.925 2.188zm53.73 4.502a1.672 1.672 0 002.188-.926 1.69 1.69 0 00-1.558-2.313c-.694 0-1.304.42-1.556 1.051a1.672 1.672 0 00.926 2.188z" fill="url(#paint8_linear)"/><path d="M78.128 28.837a1.688 1.688 0 01-1.683-1.683v-3.072l-2.84-1.157c-.862-.357-1.283-1.325-.926-2.188.358-.862 1.326-1.283 2.188-.925l3.892 1.578a1.693 1.693 0 011.052 1.556v4.208c0 .925-.736 1.683-1.683 1.683z" fill="url(#paint9_linear)"/><path d="M76.445 27.154c0-.926.758-1.683 1.683-1.683.926 0 1.683.757 1.683 1.683s-.757 1.683-1.683 1.683a1.688 1.688 0 01-1.683-1.683z" fill="url(#paint10_linear)"/><path fill-rule="evenodd" clip-rule="evenodd" d="M76.445 47.602c0 .926.758 1.683 1.683 1.683.947 0 1.683-.757 1.683-1.683V37.378c0-.926-.757-1.683-1.683-1.683-.925 0-1.683.757-1.683 1.683v10.224zm0 10.225c0 .925.758 1.683 1.683 1.683.947 0 1.683-.758 1.683-1.683 0-.926-.757-1.683-1.683-1.683-.925 0-1.683.757-1.683 1.683z" fill="url(#paint11_linear)"/><path d="M74.32 65.505a1.71 1.71 0 01-1.535-.968 1.669 1.669 0 01.82-2.23l2.84-1.325v-3.135c0-.925.758-1.682 1.683-1.682.926 0 1.683.757 1.683 1.682v4.208c0 .652-.378 1.241-.968 1.536l-3.807 1.767a2.067 2.067 0 01-.716.147z" fill="url(#paint12_linear)"/><path d="M72.805 64.516a1.669 1.669 0 01.82-2.23 1.669 1.669 0 012.23.82 1.67 1.67 0 01-.82 2.23 1.698 1.698 0 01-.715.17 1.676 1.676 0 01-1.515-.99z" fill="url(#paint13_linear)"/><path d="M56.27 73.9a1.7 1.7 0 01-1.535-.969 1.698 1.698 0 01-.169-.715c0-.652.38-1.241.968-1.514l9.025-4.208c.232-.105.463-.168.716-.168a1.7 1.7 0 011.535.967 1.67 1.67 0 01-.82 2.23l-9.025 4.208c-.21.126-.442.168-.695.168z" fill="url(#paint14_linear)"/><path d="M43 32c-1.1 0-2-.755-2-1.678V12.678c0-.923.9-1.678 2-1.678s2 .755 2 1.678v17.644c0 .923-.9 1.678-2 1.678z" fill="url(#paint15_linear)"/><path d="M43 78c-1.1 0-2-.755-2-1.678V58.678c0-.923.9-1.678 2-1.678s2 .755 2 1.678v17.644c0 .923-.9 1.678-2 1.678z" fill="url(#paint16_linear)"/><path d="M81.293 66a1.66 1.66 0 01-.828-.212L4.858 23.169a1.696 1.696 0 01-.636-2.311c.467-.806 1.506-1.103 2.313-.636L82.14 62.819a1.696 1.696 0 01.637 2.312 1.72 1.72 0 01-1.485.869z" fill="url(#paint17_linear)"/><path d="M6.705 65a1.717 1.717 0 01-1.484-.872c-.466-.829-.17-1.85.657-2.317l75.59-42.59c.827-.467 1.845-.17 2.311.66.466.829.17 1.85-.657 2.317l-75.59 42.59a1.653 1.653 0 01-.827.212z" fill="url(#paint18_linear)"/><path d="M43.5 63C54.27 63 63 54.27 63 43.5S54.27 24 43.5 24 24 32.73 24 43.5 32.73 63 43.5 63z" fill="url(#paint19_linear)"/><path d="M8.5 30a7.5 7.5 0 100-15 7.5 7.5 0 000 15z" fill="url(#paint20_linear)"/><path d="M78.5 30a7.5 7.5 0 100-15 7.5 7.5 0 000 15z" fill="url(#paint21_linear)"/><path d="M43.5 16a7.5 7.5 0 100-15 7.5 7.5 0 000 15z" fill="url(#paint22_linear)"/><path d="M43.5 86a7.5 7.5 0 100-15 7.5 7.5 0 000 15z" fill="url(#paint23_linear)"/><path d="M8.5 70a7.5 7.5 0 100-15 7.5 7.5 0 000 15z" fill="url(#paint24_linear)"/><path d="M78.5 70a7.5 7.5 0 100-15 7.5 7.5 0 000 15z" fill="url(#paint25_linear)"/><defs><linearGradient id="paint13_linear" x1="56.973" y1="73.882" x2="77.061" y2="73.882" gradientUnits="userSpaceOnUse"><stop stop-color="#5C8BFC"/><stop offset="1" stop-color="#84B0FF"/></linearGradient><linearGradient id="paint0_linear" x1="7.054" y1="94.26" x2="79.824" y2="94.26" gradientUnits="userSpaceOnUse"><stop stop-color="#5C8BFC"/><stop offset="1" stop-color="#84B0FF"/></linearGradient><linearGradient id="paint2_linear" x1="17.686" y1="82.956" x2="59.79" y2="82.956" gradientUnits="userSpaceOnUse"><stop stop-color="#5C8BFC"/><stop offset="1" stop-color="#84B0FF"/></linearGradient><linearGradient id="paint3_linear" x1="7.057" y1="108.28" x2="79.825" y2="108.28" gradientUnits="userSpaceOnUse"><stop stop-color="#5C8BFC"/><stop offset="1" stop-color="#84B0FF"/></linearGradient><linearGradient id="paint4_linear" x1="7.056" y1="94.211" x2="79.821" y2="94.211" gradientUnits="userSpaceOnUse"><stop stop-color="#5C8BFC"/><stop offset="1" stop-color="#84B0FF"/></linearGradient><linearGradient id="paint5_linear" x1="7.056" y1="189.379" x2="79.821" y2="189.379" gradientUnits="userSpaceOnUse"><stop stop-color="#5C8BFC"/><stop offset="1" stop-color="#84B0FF"/></linearGradient><linearGradient id="paint6_linear" x1="7.057" y1="70.12" x2="79.826" y2="70.12" gradientUnits="userSpaceOnUse"><stop stop-color="#5C8BFC"/><stop offset="1" stop-color="#84B0FF"/></linearGradient><linearGradient id="paint7_linear" x1="9.857" y1="31.576" x2="30.321" y2="31.576" gradientUnits="userSpaceOnUse"><stop stop-color="#5C8BFC"/><stop offset="1" stop-color="#84B0FF"/></linearGradient><linearGradient id="paint8_linear" x1="7.057" y1="25.36" x2="79.821" y2="25.36" gradientUnits="userSpaceOnUse"><stop stop-color="#5C8BFC"/><stop offset="1" stop-color="#84B0FF"/></linearGradient><linearGradient id="paint9_linear" x1="7.054" y1="70.119" x2="79.821" y2="70.119" gradientUnits="userSpaceOnUse"><stop stop-color="#5C8BFC"/><stop offset="1" stop-color="#84B0FF"/></linearGradient><linearGradient id="paint10_linear" x1="7.056" y1="63.526" x2="79.821" y2="63.526" gradientUnits="userSpaceOnUse"><stop stop-color="#5C8BFC"/><stop offset="1" stop-color="#84B0FF"/></linearGradient><linearGradient id="paint11_linear" x1="7.056" y1="305.005" x2="79.821" y2="305.005" gradientUnits="userSpaceOnUse"><stop stop-color="#5C8BFC"/><stop offset="1" stop-color="#84B0FF"/></linearGradient><linearGradient id="paint12_linear" x1="7.054" y1="108.113" x2="79.822" y2="108.113" gradientUnits="userSpaceOnUse"><stop stop-color="#5C8BFC"/><stop offset="1" stop-color="#84B0FF"/></linearGradient><linearGradient id="paint1_linear" x1="31.855" y1="86.433" x2="51.937" y2="86.433" gradientUnits="userSpaceOnUse"><stop stop-color="#5C8BFC"/><stop offset="1" stop-color="#84B0FF"/></linearGradient><linearGradient id="paint14_linear" x1="32.308" y1="82.969" x2="74.412" y2="82.969" gradientUnits="userSpaceOnUse"><stop stop-color="#5C8BFC"/><stop offset="1" stop-color="#84B0FF"/></linearGradient><linearGradient id="paint15_linear" x1="41.002" y1="32.003" x2="45.002" y2="32.003" gradientUnits="userSpaceOnUse"><stop stop-color="#5C8BFC"/><stop offset="1" stop-color="#84B0FF"/></linearGradient><linearGradient id="paint16_linear" x1="41.002" y1="78" x2="45.002" y2="78" gradientUnits="userSpaceOnUse"><stop stop-color="#5C8BFC"/><stop offset="1" stop-color="#84B0FF"/></linearGradient><linearGradient id="paint17_linear" x1="45.259" y1="44.968" x2="45.863" y2="41.81" gradientUnits="userSpaceOnUse"><stop stop-color="#5C8BFC"/><stop offset="1" stop-color="#84B0FF"/></linearGradient><linearGradient id="paint18_linear" x1="41.142" y1="41.031" x2="41.744" y2="44.199" gradientUnits="userSpaceOnUse"><stop stop-color="#5C8BFC"/><stop offset="1" stop-color="#84B0FF"/></linearGradient><linearGradient id="paint19_linear" x1="24.012" y1="62.984" x2="62.992" y2="62.984" gradientUnits="userSpaceOnUse"><stop stop-color="#FFB300"/><stop offset="1" stop-color="#FF8E37"/></linearGradient><linearGradient id="paint20_linear" x1="15.984" y1="29.98" x2="15.984" y2="14.999" gradientUnits="userSpaceOnUse"><stop stop-color="#FFB300"/><stop offset="1" stop-color="#FF8E37"/></linearGradient><linearGradient id="paint21_linear" x1="86.001" y1="29.98" x2="86.001" y2="14.999" gradientUnits="userSpaceOnUse"><stop stop-color="#FFB300"/><stop offset="1" stop-color="#FF8E37"/></linearGradient><linearGradient id="paint22_linear" x1="36.011" y1="15.998" x2="50.993" y2="15.998" gradientUnits="userSpaceOnUse"><stop stop-color="#FFB300"/><stop offset="1" stop-color="#FF8E37"/></linearGradient><linearGradient id="paint23_linear" x1="36.011" y1="85.993" x2="50.993" y2="85.993" gradientUnits="userSpaceOnUse"><stop stop-color="#FFB300"/><stop offset="1" stop-color="#FF8E37"/></linearGradient><linearGradient id="paint24_linear" x1="15.984" y1="69.993" x2="15.984" y2="55.012" gradientUnits="userSpaceOnUse"><stop stop-color="#FFB300"/><stop offset="1" stop-color="#FF8E37"/></linearGradient><linearGradient id="paint25_linear" x1="86.001" y1="69.993" x2="86.001" y2="55.012" gradientUnits="userSpaceOnUse"><stop stop-color="#FFB300"/><stop offset="1" stop-color="#FF8E37"/></linearGradient></defs></svg>
